X:4859
T:Orange And Blue. JMT065
O:england
M:2/4
L:1/16
Q:150
S:J.Moore,Tyneside,1841.(46a)
R:Rant
A:Northumbria
K:C
""gf|e2cc Gcc2|ec (e/f/g/f/) ecce|fdd2 Addc|BG (B/c/d/c/) BGGg|
ecc2 Gcc2|ec (e/f/g/f/) eccg|a>fg>e f>de>c|(B/c/d/c/) GBc2:|
|:gf|egg2 eggf|ec (e/f/g/f/) ecce|faa2 faag|fd (f/g/a/g/) fddf|
egg2 eggf|ec (e/f/g/f/) eccg|a>fg>e f>de>c|(B/c/d/c/) GBc2:|]


